static/images/mobile/copyright/wikipedia-tagline-awa.svg

<?xml version="1.0" encoding="UTF-8"?>
<svg width="120px" height="20px" viewBox="0 0 120 20" version="1.1" xmlns="http://www.w3.org/2000/svg" xmlns:xlink="http://www.w3.org/1999/xlink">
    <title>awa-tagline</title>
    <g id="Page-1" stroke="none" stroke-width="1" fill="none" fill-rule="evenodd">
        <path d="M24.5750143,14.1528808 C25.7900742,14.1528808 26.8339989,15.179692 26.8339989,16.3434113 C26.8339989,17.387336 25.9783229,18.3970337 24.4552196,18.3970337 C22.4358243,18.3970337 20.6902453,17.0108386 19.5094124,15.7615516 L20.0570451,15.179692 C20.9298346,16.2407302 22.2989161,17.4729036 23.9931546,17.4729036 C25.2937821,17.4729036 25.9783229,16.7027952 25.9783229,15.9155733 C25.9783229,15.3679407 25.5675984,14.9914432 25.0884199,14.9914432 C24.6434683,14.9914432 24.0616087,15.2994866 23.8049059,15.9326868 L22.8294353,15.1454649 C23.2230462,14.4609241 23.8562464,14.1528808 24.5750143,14.1528808 Z M28.2030804,4.00456361 L28.6138049,4.58642327 L28.9047347,4.92869367 L28.9047347,5.08271535 L24.9515117,5.08271535 C25.0713063,5.2196235 25.5675984,5.78436965 25.5675984,6.57159156 C25.5675984,7.08499715 25.3622362,7.29035938 25.3622362,7.61551626 C25.3622362,7.78665145 25.4991443,7.90644609 25.6702795,8.04335425 C26.4403879,8.64232744 27.6896748,9.42954934 27.6896748,10.9184256 C27.6896748,12.5613234 26.2007986,13.7934969 24.2156303,13.7934969 C21.7512835,13.7934969 19.7832288,11.8767827 19.7832288,10.2509983 C19.7832288,9.37820878 20.3137479,8.67655448 21.73417,8.21448945 L23.0690245,7.76953793 C24.0444952,7.46149458 24.4381061,7.05077011 24.4381061,6.38334284 C24.4381061,5.64746149 23.907587,5.2196235 23.7364518,5.08271535 L16.993725,5.08271535 L16.9930364,5.52763442 C16.9849076,6.94268472 16.9072567,7.94787882 16.8910439,8.07758129 C17.1306332,7.66685682 17.7124929,7.08499715 18.6879635,7.08499715 C19.2527096,7.08499715 19.8345693,7.34169994 20.3479749,7.7353109 L20.3479749,8.693668 C20.0570451,8.40273816 19.6805476,8.12892185 19.0815744,8.12892185 C17.6953793,8.12892185 16.959498,9.34398175 16.959498,10.9526526 L16.959498,15.2310325 L16.7541358,15.2310325 L16.3434113,14.9058756 L15.7957787,14.5636052 C15.8300057,13.2458642 15.8813463,12.4244153 15.8984598,11.6885339 C15.641757,12.0992584 15.0427838,12.6811181 14.0501997,12.6811181 C13.2800913,12.6811181 12.4415288,12.2019395 11.8254421,11.4831717 C11.32915,10.901312 10.9355391,10.1312037 10.9355391,9.36109527 C10.9355391,7.85510553 11.9965773,7.01654307 13.3314318,7.01654307 C13.5367941,7.01654307 13.6737022,7.03365659 13.8790645,7.08499715 L14.5978323,8.09469481 L14.5464917,8.23160297 C14.324016,8.18026241 14.0159726,8.12892185 13.7934969,8.12892185 C12.7495722,8.12892185 11.9452367,8.74500856 11.9452367,9.85738734 C11.9452367,10.7815174 12.6297775,11.6543069 13.6565887,11.6543069 C15.0598973,11.6543069 15.7957787,10.473474 15.7957787,8.84768967 L15.7957787,5.08271535 L8.67655448,5.08271535 L8.67655448,8.26583001 C8.67655448,9.54934398 8.07758129,10.2167712 7.10211067,10.5590416 L5.90416429,9.87450086 C7.03365659,9.60068454 7.49572162,9.12150599 7.49572162,8.26583001 L7.49506676,8.05342451 C7.49193177,7.35395772 7.4786081,5.50551995 7.4786081,5.08271535 L3.62806617,5.08271535 L3.62806617,10.6617228 L8.14603537,13.2800913 C9.00171135,13.7763833 9.58357102,14.4095836 9.58357102,15.2823731 C9.58357102,15.6588705 9.44666286,16.1209355 9.15573303,16.53166 L7.88933257,16.1893896 C8.23160297,15.8471192 8.41985168,15.4021677 8.41985168,15.0256703 C8.41985168,14.4780376 8.04335425,14.0844267 7.32458642,13.6737022 L2.41300627,10.8157444 L2.41300627,5.08271535 L0.701654307,5.08271535 L0.290929835,4.50085568 L0,4.15858528 L0,4.00456361 L28.2030804,4.00456361 Z M24.763263,8.48830576 C24.4038791,8.48830576 23.7535653,8.64232744 22.3673702,9.15573303 C21.340559,9.54934398 20.9298346,10.0969766 20.9298346,10.7472904 C20.9298346,11.8254421 21.9053052,12.8522533 23.6851112,12.8522533 C25.3280091,12.8522533 26.5259555,11.9110097 26.5259555,10.5590416 C26.5259555,9.32686823 25.3964632,8.48830576 24.763263,8.48830576 Z M56.3719338,5.08271535 L56.3719338,15.2310325 L56.1665716,15.2310325 L55.7387336,14.9058756 L55.1739875,14.5464917 C55.1739875,14.5464917 55.225328,12.2875071 55.225328,8.64232744 C54.8659441,8.50541928 54.4552196,8.36851112 53.8904735,8.36851112 C52.9150029,8.36851112 52.162008,9.05305191 52.162008,10.2852253 C52.162008,10.9697661 52.3673702,11.4831717 52.589846,11.9452367 L52.5385054,11.9965773 L51.4261266,11.5345123 C51.2036509,11.1580148 51.0154022,10.5590416 51.0154022,9.97718197 C51.0154022,9.77181974 51.0325157,9.54934398 51.0667427,9.37820878 C50.6217912,8.89903023 50.1254991,8.64232744 49.4580719,8.64232744 C48.5681689,8.64232744 47.8322875,9.24130063 47.8322875,10.3023388 C47.8322875,11.7056475 48.9275528,13.1602966 50.6217912,14.4266971 L50.0912721,14.8887621 C47.7467199,13.1260696 46.6343411,11.3976041 46.6343411,9.87450086 C46.6343411,8.5225328 47.5926982,7.58128922 48.9275528,7.58128922 C50.0057045,7.58128922 50.8613805,8.19737593 51.306332,8.71078152 C51.6828294,7.90644609 52.4529378,7.46149458 53.3599544,7.46149458 C54.0787222,7.46149458 54.6776954,7.6497433 55.1739875,7.94067313 L55.1739875,5.08271535 L44.2384484,5.08271535 L44.2382177,15.2174355 C45.1699855,15.4909042 45.8813463,16.3582464 45.8813463,17.3188819 C45.8813463,18.3628066 45.0256703,19.3725043 43.502567,19.3725043 C41.4831717,19.3725043 39.7375927,17.9863092 38.5567598,16.7370222 L39.1043925,16.1551626 C39.977182,17.2162008 41.3462635,18.4483742 43.040502,18.4483742 C44.3411295,18.4483742 45.0256703,17.6782658 45.0256703,16.8910439 C45.0256703,16.3434113 44.6149458,15.9669139 44.1357673,15.9669139 C43.6908157,15.9669139 43.1089561,16.2749572 42.8522533,16.9081574 L41.8767827,16.1209355 C42.2703936,15.4363948 42.9035938,15.1283514 43.6223617,15.1283514 C43.7273374,15.1283514 43.8310357,15.1360157 43.9328938,15.1507704 L43.6223617,14.9058756 L43.074729,14.5636052 C43.074729,14.5636052 43.1260696,13.7250428 43.1431831,13.2458642 C42.4073018,13.7934969 41.1922419,14.3753565 39.6177981,14.3753565 C37.0678836,14.3753565 34.740445,12.646891 33.3542499,9.41243582 L33.9361095,8.81346264 C34.1414718,8.89903023 34.4495151,9.01882487 34.740445,9.01882487 C35.1682829,9.01882487 35.4592128,8.83057616 35.4592128,8.4369652 L35.4592128,5.08271535 L32.8066172,5.08271535 L32.3958928,4.50085568 L32.1049629,4.15858528 L32.1049629,4.00456361 L62.635482,4.00456361 L63.0462065,4.58642327 L63.3542499,4.92869367 L63.3542499,5.08271535 L61.0268112,5.08271535 L61.0268112,15.2310325 L60.8214489,15.2310325 L60.393611,14.9058756 L59.8288648,14.5464917 L59.8288648,5.08271535 L56.3719338,5.08271535 Z M43.074729,5.08271535 L36.6400456,5.08271535 L36.6400456,8.3513976 C36.6400456,9.20707359 36.3833428,9.61779806 35.3394181,10.3536794 C35.1340559,10.4905876 35.0827153,10.5248146 35.0827153,10.6617228 C35.0827153,10.901312 36.1608671,13.3485454 39.3097547,13.3485454 C41.3120365,13.3485454 42.646891,12.4928694 43.1602966,12.0650314 L43.1602966,11.7912151 C43.1602966,11.1751284 43.2116372,10.5077011 43.2116372,10.5077011 C42.9207074,10.7986309 42.2361666,11.3462635 41.1922419,11.3462635 C39.549344,11.3462635 38.1460354,9.6520251 38.1460354,8.38562464 C38.1460354,7.18767827 39.0530519,6.31488876 40.3365659,6.31488876 C41.0382202,6.31488876 41.4318311,6.48602396 41.7398745,6.64004564 L42.1334855,7.6497433 L42.0308043,7.71819738 C41.6371934,7.49572162 41.2435824,7.35881346 40.7815174,7.35881346 C39.7889333,7.35881346 39.1386195,7.95778665 39.1386195,8.88191671 C39.1386195,9.58357102 39.6862521,10.40502 40.867085,10.40502 C42.0821449,10.40502 42.8522533,9.70336566 43.074729,9.32686823 L43.074729,5.08271535 Z M119.281232,4.00456361 L119.691957,4.58642327 L120,4.92869367 L120,5.08271535 L117.621221,5.08271535 L117.621221,8.5225328 C117.621221,9.53223046 117.261837,9.96006845 116.235026,10.6617228 C116.132345,10.7130633 116.029663,10.7644039 116.029663,10.901312 C116.029663,11.2093554 117.142042,12.8180262 119.110097,14.8374216 L118.271535,15.2994866 L116.320593,12.7837992 C114.968625,11.0039932 114.50656,10.1140901 114.335425,9.63491158 L114.883058,9.05305191 C115.156874,9.17284655 115.464917,9.24130063 115.772961,9.24130063 C116.166572,9.24130063 116.440388,9.05305191 116.440388,8.693668 L116.440388,5.08271535 L112.059327,5.08271535 L112.059327,15.2310325 L111.853965,15.2310325 L111.426127,14.9058756 L110.86138,14.5464917 L110.86138,5.08271535 L107.558471,5.08271535 L107.558471,7.32458642 C107.558471,7.61551626 107.421563,7.78665145 106.87393,7.78665145 L104.255562,7.78665145 C103.245864,7.78665145 102.732459,8.24871649 102.732459,8.95037079 C102.732459,9.66913862 103.280091,10.2167712 103.879064,10.2167712 C104.169994,10.1312037 105.744438,9.63491158 106.326298,9.63491158 C106.976612,9.63491158 107.387336,9.84027382 107.815174,10.439247 C108.191671,10.9868796 108.37992,11.5858528 108.37992,12.1334855 C108.37992,13.5196805 107.16486,14.5293782 105.367941,14.5293782 C103.434113,14.5293782 102.047918,13.4341129 101.192242,12.5270964 L101.688534,12.0136908 C102.304621,12.6640046 103.485454,13.4341129 104.922989,13.4341129 C106.754136,13.4341129 107.507131,12.4757558 107.507131,11.5516258 C107.507131,11.0382202 107.199087,10.7130633 106.737022,10.7130633 C105.9498,10.7130633 104.238448,11.3633771 104.238448,11.3633771 C103.091843,11.1580148 101.808329,9.7375927 101.808329,8.31717056 C101.808329,7.34169994 102.561323,6.65715916 103.861951,6.65715916 C105.02567,6.65715916 106.223617,6.79406731 106.394752,6.81118083 L106.394752,5.08271535 L98.9674843,5.08271535 L98.9674843,15.2310325 L98.7621221,15.2310325 L98.3342841,14.9058756 L97.7695379,14.5464917 C97.7695379,14.5464917 97.8140412,13.315234 97.8201796,10.7146049 L97.8208785,10.1140901 L94.1072447,10.1140901 L94.1072447,11.7398745 L93.4398175,11.7398745 C92.8066172,11.1237878 92.2760981,10.2167712 92.2760981,9.70336566 C92.2760981,9.3953223 92.4472333,9.25841415 92.9777524,9.00171135 C92.9777524,9.00171135 92.9316739,8.35661225 92.9268235,6.9791074 L92.9264119,5.35653166 C92.9264119,5.16828294 92.8237307,5.03137479 92.4643468,5.03137479 C91.9851683,5.03137479 91.5744438,5.2196235 91.2492869,5.59612094 L90.959,5.082 L89.537935,5.08271535 L89.537935,15.2310325 L89.3496863,15.2310325 L88.9218483,14.9058756 L88.3571021,14.5464917 L88.3578259,14.5303025 C88.3651481,14.3621875 88.4255562,12.8719598 88.4255562,9.46377638 L85.1739875,9.46377638 C84.9343982,9.46377638 84.8659441,9.60068454 84.8659441,10.2681118 C84.8659441,10.6788363 84.9001711,11.0895608 84.9001711,11.0895608 L84.2156303,11.1580148 C83.8391329,10.6617228 83.4112949,9.7375927 83.4112949,8.96748431 C83.4112949,8.57387336 83.6679977,8.3513976 83.9760411,8.3513976 L88.3571021,8.3513976 L88.3571021,5.08271535 L81.3747861,5.08271535 L81.3747861,15.2310325 L81.1694238,15.2310325 L80.7415859,14.9058756 L80.1768397,14.5464917 L80.1768397,5.08271535 L76.7199087,5.08271535 L76.7199087,15.2310325 L76.5145465,15.2310325 L76.103822,14.9058756 L75.5390759,14.5464917 L75.5397307,14.4444306 C75.5398352,14.4276202 75.5399511,14.4087833 75.5400773,14.3879574 L75.5409534,14.2394342 C75.5445743,13.6095309 75.55241,12.0532125 75.5551879,9.96919996 L75.5558132,9.38804915 C75.5558942,9.28910998 75.555963,9.18915542 75.5560187,9.08822293 L75.5561894,8.47119224 L71.0895608,8.47119224 L71.0895608,8.53964632 C72.0992584,9.18996007 73.3485454,10.1483172 73.3485454,11.4831717 C73.3485454,13.1089561 71.8083286,13.9132915 70.0285225,13.8277239 L72.3046207,16.2920707 L71.0382202,16.6685682 L69.1728465,13.8448374 C68.1802624,13.6052481 67.5128351,13.0576155 67.4957216,11.756988 L68.1118083,11.4147176 L69.4637764,13.006275 C70.9526526,13.1602966 72.184826,12.4757558 72.184826,11.3120365 C72.184826,9.94295493 70.5590416,8.93325727 68.9332573,7.99201369 L69.1386195,7.42726754 L75.5390759,7.42726754 L75.5390759,5.08271535 L67.2390188,5.08271535 L66.8282944,4.50085568 L66.5373645,4.15858528 L66.5373645,4.00456361 L91.1637193,4.00456361 L91.19274,4.04607052 C91.3960699,3.98357669 91.6145766,3.95322305 91.8482601,3.95322305 C92.3274387,3.95322305 92.7381631,4.12435824 93.2173417,4.5179692 C93.7478608,4.96292071 94.1072447,5.3907587 94.1072447,6.07529949 L94.1072447,9.05305191 L97.7695379,9.05305191 L97.7695379,5.08271535 L96.058186,5.08271535 L95.6474615,4.50085568 L95.3565317,4.15858528 L95.3565317,4.00456361 L119.281232,4.00456361 Z M98.3685111,-1.95399252e-14 L97.2561323,1.09526526 L98.4027382,2.24187108 L99.5151169,1.11237878 L98.3685111,-1.95399252e-14 Z" id="awa-tagline" fill="#000000" fill-rule="nonzero"></path>
    </g>
</svg>

<svg xmlns="http://www.w3.org/2000/svg" width="120" height="20"><path fill="#000" fill-rule="nonzero" d="M24.575 14.153c1.215 0 2.259 1.027 2.259 2.19 0 1.044-.856 2.054-2.379 2.054-2.02 0-3.765-1.386-4.946-2.635l.548-.582c.873 1.06 2.242 2.293 3.936 2.293 1.3 0 1.985-.77 1.985-1.557 0-.548-.41-.925-.89-.925-.445 0-1.026.308-1.283.942l-.976-.788c.394-.684 1.027-.992 1.746-.992Zm3.628-10.148.41.581.292.343v.154h-3.953c.12.137.616.701.616 1.489 0 .513-.206.718-.206 1.044 0 .17.137.29.308.427.77.6 2.02 1.387 2.02 2.875 0 1.643-1.49 2.875-3.474 2.875-2.465 0-4.433-1.916-4.433-3.542 0-.873.53-1.574 1.951-2.037l1.335-.444c.975-.309 1.37-.72 1.37-1.387 0-.736-.531-1.163-.703-1.3h-6.742l-.001.445c-.008 1.415-.086 2.42-.102 2.55.24-.411.821-.993 1.797-.993.565 0 1.147.257 1.66.65v.959c-.291-.291-.667-.565-1.266-.565-1.387 0-2.123 1.215-2.123 2.824v4.278h-.205l-.41-.325-.548-.342c.034-1.318.085-2.14.102-2.875-.256.41-.855.992-1.848.992-.77 0-1.608-.48-2.225-1.198-.496-.582-.89-1.352-.89-2.122 0-1.506 1.062-2.344 2.396-2.344.206 0 .343.017.548.068l.719 1.01-.052.137a3.794 3.794 0 0 0-.753-.103c-1.043 0-1.848.616-1.848 1.728 0 .925.685 1.797 1.712 1.797 1.403 0 2.139-1.18 2.139-2.806V5.083h-7.12v3.183c0 1.283-.598 1.95-1.574 2.293l-1.198-.684c1.13-.274 1.592-.753 1.592-1.61v-.212c-.004-.699-.017-2.547-.017-2.97h-3.85v5.579l4.517 2.618c.856.496 1.438 1.13 1.438 2.002 0 .377-.137.839-.428 1.25l-1.267-.343c.343-.342.53-.787.53-1.163 0-.548-.376-.942-1.094-1.352l-4.912-2.858V5.083H.702L.29 4.5 0 4.159v-.154h28.203Zm-3.44 4.483c-.36 0-1.01.154-2.396.668-1.026.393-1.437.941-1.437 1.591 0 1.078.975 2.105 2.755 2.105 1.643 0 2.841-.941 2.841-2.293 0-1.232-1.13-2.07-1.763-2.07Zm31.609-3.405V15.23h-.205l-.428-.325-.565-.36s.051-2.258.051-5.904c-.36-.137-.77-.273-1.335-.273-.975 0-1.728.684-1.728 1.916 0 .685.205 1.198.428 1.66l-.051.052-1.113-.462a3.269 3.269 0 0 1-.36-2.157c-.444-.479-.94-.736-1.608-.736-.89 0-1.626.6-1.626 1.66 0 1.404 1.096 2.858 2.79 4.125l-.53.462c-2.345-1.763-3.458-3.491-3.458-5.014 0-1.352.959-2.294 2.294-2.294 1.078 0 1.933.616 2.378 1.13.377-.805 1.147-1.25 2.054-1.25.719 0 1.318.189 1.814.48V5.083H44.238v10.134c.932.274 1.643 1.141 1.643 2.102 0 1.044-.855 2.054-2.378 2.054-2.02 0-3.765-1.387-4.946-2.636l.547-.582c.873 1.061 2.242 2.293 3.937 2.293 1.3 0 1.985-.77 1.985-1.557 0-.548-.411-.924-.89-.924-.445 0-1.027.308-1.284.941l-.975-.787c.393-.685 1.027-.993 1.745-.993.105 0 .209.008.31.023l-.31-.245-.547-.342s.051-.839.068-1.318c-.736.547-1.95 1.13-3.525 1.13-2.55 0-4.878-1.73-6.264-4.964l.582-.599c.205.086.514.206.804.206.428 0 .72-.188.72-.582V5.083h-2.653l-.411-.582-.291-.342v-.154h30.53l.411.581.308.343v.154h-2.327V15.23h-.206l-.427-.325-.565-.36V5.083h-3.457Zm-13.297 0H36.64V8.35c0 .856-.257 1.267-1.3 2.003-.206.137-.257.17-.257.308 0 .24 1.078 2.687 4.227 2.687 2.002 0 3.337-.856 3.85-1.284v-.274c0-.616.052-1.283.052-1.283-.291.29-.976.838-2.02.838-1.643 0-3.046-1.694-3.046-2.96 0-1.198.907-2.071 2.19-2.071.702 0 1.096.171 1.404.325l.393 1.01-.102.068c-.394-.222-.787-.36-1.25-.36-.992 0-1.642.6-1.642 1.524 0 .702.547 1.523 1.728 1.523 1.215 0 1.985-.702 2.208-1.078V5.083Zm76.206-1.078.411.581.308.343v.154h-2.379v3.44c0 1.01-.36 1.437-1.386 2.139-.103.051-.205.102-.205.24 0 .307 1.112 1.916 3.08 3.935l-.838.462-1.951-2.515c-1.352-1.78-1.814-2.67-1.986-3.15l.548-.58c.274.119.582.187.89.187.394 0 .667-.188.667-.547V5.083h-4.38V15.23h-.206l-.428-.325-.565-.36V5.083h-3.303v2.242c0 .29-.136.462-.684.462h-2.618c-1.01 0-1.524.462-1.524 1.163 0 .72.548 1.267 1.147 1.267.291-.086 1.865-.582 2.447-.582.65 0 1.061.205 1.49.804.376.548.564 1.147.564 1.694 0 1.387-1.215 2.396-3.012 2.396-1.934 0-3.32-1.095-4.176-2.002l.497-.513c.616.65 1.796 1.42 3.234 1.42 1.831 0 2.584-.958 2.584-1.882 0-.514-.308-.839-.77-.839-.787 0-2.499.65-2.499.65-1.146-.205-2.43-1.625-2.43-3.046 0-.975.753-1.66 2.054-1.66 1.164 0 2.362.137 2.533.154V5.083h-7.428V15.23h-.205l-.428-.325-.564-.36s.044-1.23.05-3.831v-.6h-3.713v1.625h-.667c-.633-.616-1.164-1.523-1.164-2.037 0-.308.171-.445.702-.701 0 0-.046-.645-.051-2.023V5.357c0-.189-.103-.326-.463-.326-.479 0-.89.189-1.215.565l-.29-.514h-1.421v10.149h-.188l-.428-.325-.565-.36v-.016c.008-.168.069-1.658.069-5.066h-3.252c-.24 0-.308.137-.308.804 0 .41.034.822.034.822l-.684.068c-.377-.496-.805-1.42-.805-2.19 0-.394.257-.617.565-.617h4.381V5.083h-6.982V15.23h-.206l-.427-.325-.565-.36V5.083H76.72V15.23h-.205l-.411-.325-.565-.36v-.102l.001-.056.001-.149c.004-.63.011-2.186.014-4.27v-.581l.001-.3v-.617H71.09v.069c1.01.65 2.259 1.608 2.259 2.943 0 1.626-1.54 2.43-3.32 2.345l2.276 2.464-1.267.377-1.865-2.824c-.993-.24-1.66-.787-1.677-2.088l.616-.342 1.352 1.591c1.489.154 2.72-.53 2.72-1.694 0-1.369-1.625-2.379-3.25-3.32l.205-.565h6.4V5.083h-8.3l-.41-.582-.292-.342v-.154h24.627l.029.041a2.22 2.22 0 0 1 .655-.093c.48 0 .89.171 1.37.565.53.445.89.873.89 1.557v2.978h3.662v-3.97h-1.712l-.41-.582-.291-.342v-.154h23.924ZM98.37 0l-1.113 1.095 1.147 1.147 1.112-1.13L98.37 0Z"/></svg>
